icons/save-3-fill.svg

<svg xmlns="http://www.w3.org/2000/svg" width="24" height="24" fill="none"><g clip-path="url(#a)"><g><path fill="#121212" d="M4 3H18L20.707 5.707C20.8946 5.89449 20.9999 6.14881 21 6.414V20C21 20.2652 20.8946 20.5196 20.7071 20.7071C20.5196 20.8946 20.2652 21 20 21H4C3.73478 21 3.48043 20.8946 3.29289 20.7071C3.10536 20.5196 3 20.2652 3 20V4C3 3.73478 3.10536 3.48043 3.29289 3.29289C3.48043 3.10536 3.73478 3 4 3ZM7 4V9H16V4H7ZM6 12V19H18V12H6ZM13 5H15V8H13V5Z"/></g></g><defs><clipPath id="a"><rect width="24" height="24" fill="white"/></clipPath></defs></svg>

<svg width="24" height="24" fill="none" xmlns="http://www.w3.org/2000/svg"><g clip-path="url(#a)"><path d="M4 3h14l2.707 2.707a1 1 0 0 1 .293.707V20a1 1 0 0 1-1 1H4a1 1 0 0 1-1-1V4a1 1 0 0 1 1-1Zm3 1v5h9V4H7Zm-1 8v7h12v-7H6Zm7-7h2v3h-2V5Z" /></g><defs><clipPath id="a"><path fill="#fff" d="M0 0h24v24H0z"/></clipPath></defs></svg>
